icons/wandb-dark.svg

<svg width="256" height="256" viewBox="0 0 256 256" fill="none" xmlns="http://www.w3.org/2000/svg">
<path d="M196 0H60C26.8629 0 0 26.8629 0 60V196C0 229.137 26.8629 256 60 256H196C229.137 256 256 229.137 256 196V60C256 26.8629 229.137 0 196 0Z" fill="#282828"/>
<path d="M56.7438 61.4476C63.2571 61.4476 68.4677 56.2371 68.4677 49.7238C68.4677 43.2106 63.2571 38 56.7438 38C50.2306 38 45.02 43.2106 45.02 49.7238C45.02 56.2371 50.2306 61.4476 56.7438 61.4476Z" fill="#FCBC32"/>
<path d="M60.8685 114.422C70.8554 112.034 77.1517 102.047 74.7634 92.0601C72.3752 82.0731 62.3882 75.7771 52.4013 78.1653C42.4143 80.5533 36.1182 90.5403 38.5064 100.527C40.8946 110.731 50.8815 116.811 60.8685 114.422Z" fill="#FCBC32"/>
<path d="M60.8685 207.562C70.8554 205.174 77.1517 195.187 74.7634 185.2C72.3752 175.213 62.3882 168.917 52.4013 171.306C42.4143 173.693 36.1182 183.681 38.5064 193.668C40.8946 203.655 50.8815 209.951 60.8685 207.562Z" fill="#FCBC32"/>
<path d="M68.2504 142.862C68.2504 136.349 63.0398 131.138 56.5266 131.138C50.0133 131.138 44.8027 136.349 44.8027 142.862C44.8027 149.375 50.0133 154.586 56.5266 154.586C63.0398 154.586 68.2504 149.375 68.2504 142.862Z" fill="#FCBC32"/>
<path d="M128.171 141.561C117.967 141.561 109.5 149.811 109.5 160.232C109.5 170.436 117.75 178.904 128.171 178.904C138.375 178.904 146.842 170.653 146.842 160.232C146.625 149.811 138.375 141.561 128.171 141.561Z" fill="#FCBC32"/>
<path d="M128.17 194.97C121.658 194.97 116.447 200.181 116.447 206.695C116.447 213.207 121.658 218.418 128.17 218.418C134.684 218.418 139.895 213.207 139.895 206.695C139.677 200.181 134.467 194.97 128.17 194.97Z" fill="#FCBC32"/>
<path d="M128.17 125.278C134.684 125.278 139.895 120.067 139.895 113.554C139.895 107.041 134.684 101.83 128.17 101.83C121.658 101.83 116.447 107.041 116.447 113.554C116.447 120.067 121.658 125.278 128.17 125.278Z" fill="#FCBC32"/>
<path d="M129.908 78.5994C136.204 77.5137 140.546 71.6518 139.461 65.3557C138.375 59.0596 132.513 54.7174 126.217 55.803C119.921 56.8885 115.579 62.7504 116.664 69.0465C117.75 75.3427 123.612 79.4675 129.908 78.5994Z" fill="#FCBC32"/>
<path d="M212.627 109.429C219.791 102.265 219.791 90.3239 212.627 83.1593C205.462 75.9948 193.521 75.9948 186.357 83.1593C179.192 90.3239 179.192 102.265 186.357 109.429C193.521 116.811 205.462 116.811 212.627 109.429Z" fill="#FCBC32"/>
<path d="M199.599 61.4476C206.113 61.4476 211.323 56.2371 211.323 49.7238C211.323 43.2106 206.113 38 199.599 38C193.086 38 187.875 43.2106 187.875 49.7238C187.875 56.2371 193.086 61.4476 199.599 61.4476Z" fill="#FCBC32"/>
<path d="M199.599 131.355C193.086 131.355 187.875 136.566 187.875 143.08C187.875 149.593 193.086 154.803 199.599 154.803C206.113 154.803 211.323 149.593 211.323 143.08C211.106 136.566 205.895 131.355 199.599 131.355Z" fill="#FCBC32"/>
<path d="M199.599 177.817C193.086 177.817 187.875 183.028 187.875 189.541C187.875 196.054 193.086 201.265 199.599 201.265C206.113 201.265 211.323 196.054 211.323 189.541C211.106 183.028 205.895 177.817 199.599 177.817Z" fill="#FCBC32"/>
</svg>

<svg xmlns="http://www.w3.org/2000/svg" width="256" height="256" fill="none"><path fill="#282828" d="M196 0H60C26.863 0 0 26.863 0 60v136c0 33.137 26.863 60 60 60h136c33.137 0 60-26.863 60-60V60c0-33.137-26.863-60-60-60"/><path fill="#FCBC32" d="M56.744 61.448c6.513 0 11.724-5.21 11.724-11.724S63.258 38 56.744 38A11.675 11.675 0 0 0 45.02 49.724c0 6.513 5.21 11.724 11.724 11.724m4.125 52.974c9.986-2.388 16.283-12.375 13.894-22.362-2.388-9.987-12.375-16.283-22.362-13.895S36.118 90.54 38.506 100.527c2.389 10.204 12.376 16.284 22.362 13.895m.001 93.14c9.986-2.388 16.283-12.375 13.894-22.362-2.388-9.987-12.375-16.283-22.362-13.894-9.987 2.387-16.283 12.375-13.895 22.362s12.376 16.283 22.362 13.894m7.382-64.7c0-6.513-5.21-11.724-11.723-11.724a11.675 11.675 0 0 0-11.724 11.724c0 6.513 5.21 11.724 11.724 11.724a11.675 11.675 0 0 0 11.723-11.724m59.921-1.301c-10.204 0-18.671 8.25-18.671 18.671 0 10.204 8.25 18.672 18.671 18.672 10.204 0 18.671-8.251 18.671-18.672-.217-10.421-8.467-18.671-18.671-18.671m-.001 53.409a11.676 11.676 0 0 0-11.723 11.725 11.675 11.675 0 0 0 11.723 11.723 11.676 11.676 0 0 0 11.725-11.723c-.218-6.514-5.428-11.725-11.725-11.725m0-69.692a11.676 11.676 0 0 0 11.725-11.724 11.676 11.676 0 0 0-11.725-11.724 11.675 11.675 0 0 0-11.723 11.724 11.675 11.675 0 0 0 11.723 11.724m1.738-46.678c6.296-1.086 10.638-6.948 9.553-13.244-1.086-6.296-6.948-10.639-13.244-9.553s-10.638 6.947-9.553 13.243c1.086 6.297 6.948 10.421 13.244 9.553m82.719 30.83c7.164-7.164 7.164-19.105 0-26.27-7.165-7.164-19.106-7.164-26.27 0-7.165 7.165-7.165 19.106 0 26.27 7.164 7.382 19.105 7.382 26.27 0m-13.028-47.981c6.514 0 11.724-5.21 11.724-11.724 0-6.513-5.21-11.724-11.724-11.724a11.675 11.675 0 0 0-11.724 11.724 11.675 11.675 0 0 0 11.724 11.724m0 69.907a11.676 11.676 0 0 0-11.724 11.725 11.675 11.675 0 0 0 11.724 11.723c6.514 0 11.724-5.21 11.724-11.723-.217-6.514-5.428-11.725-11.724-11.725m0 46.462a11.676 11.676 0 0 0-11.724 11.724 11.676 11.676 0 0 0 11.724 11.724 11.675 11.675 0 0 0 11.724-11.724c-.217-6.513-5.428-11.724-11.724-11.724"/></svg>
